assets/img/braze_icons/scale-03.svg

<svg fill="none" height="24" viewBox="0 0 24 24" width="24" xmlns="http://www.w3.org/2000/svg"><path clip-rule="evenodd" d="m7.75868 2c-.80495-.00001-1.46932-.00002-2.0105.0442-.5621.04592-1.0788.14448-1.56414.39178-.75265.38349-1.36457.99541-1.74806 1.74806-.2473.48534-.34586 1.00204-.39178 1.56414-.04422.54118-.04421 1.20555-.0442 2.01051v8.48261c-.00001.805-.00002 1.4693.0442 2.0105.04592.5621.14448 1.0788.39178 1.5642.38349.7526.99541 1.3645 1.74806 1.748.48534.2473 1.00204.3459 1.56414.3918.54119.0442 1.20554.0442 2.0105.0442h8.48262c.805 0 1.4693 0 2.0105-.0442.5621-.0459 1.0788-.1445 1.5642-.3918.7526-.3835 1.3645-.9954 1.748-1.748.2473-.4854.3459-1.0021.3918-1.5642.0442-.5412.0442-1.2055.0442-2.0105v-8.48268c0-.80493 0-1.46927-.0442-2.01044-.0459-.5621-.1445-1.0788-.3918-1.56414-.3835-.75265-.9954-1.36457-1.748-1.74806-.4247-.21638-.8734-.31889-1.3555-.37191-.0689-.00757-.1384-.01413-.2087-.01987-.4798-.03921-1.0564-.04364-1.7419-.04414zm.04132 2h3.3783c-.0852.26461-.1256.53429-.1477.80498-.0306.37455-.0306.82931-.0306 1.35642v2.67717c0 .52711 0 .98191.0306 1.35643.0303.3713.095.7407.2625 1.0977l-3.2931 3.2931v-2.5858c0-.5523-.44771-1-1-1-.55228 0-1 .4477-1 1v5c0 .5523.44772 1 1 1h5c.5523 0 1-.4477 1-1s-.4477-1-1-1h-2.58579l3.29309-3.2931c.357.1675.7264.2322 1.0977.2625.3745.0306.8293.0306 1.3564.0306h2.6771c.5272 0 .982 0 1.3565-.0306.2707-.0221.5404-.0625.805-.1476v3.3782c0 .8566-.0008 1.4389-.0376 1.889-.0358.4384-.1007.6626-.1804.819-.1917.3763-.4977.6823-.874.874-.1564.0797-.3806.1446-.819.1804-.4501.0368-1.0324.0376-1.889.0376h-8.4c-.85658 0-1.43887-.0008-1.88896-.0376-.43842-.0358-.66262-.1007-.81902-.1804-.37632-.1917-.68228-.4977-.87403-.874-.07969-.1564-.14462-.3806-.18044-.819-.03677-.4501-.03755-1.0324-.03755-1.889v-8.4c0-.85658.00078-1.43887.03755-1.88896.03582-.43842.10075-.66262.18044-.81902.19175-.37632.49771-.68228.87403-.87403.1564-.07969.3806-.14462.81902-.18044.45009-.03677 1.03238-.03755 1.88896-.03755z" fill="#801ed7" fill-rule="evenodd"/></svg>

<svg width="24" height="24" viewBox="0 0 24 24" fill="none" xmlns="http://www.w3.org/2000/svg">
<path fill-rule="evenodd" clip-rule="evenodd" d="M7.75868 2C6.95373 1.99999 6.28936 1.99998 5.74818 2.0442C5.18608 2.09012 4.66938 2.18868 4.18404 2.43598C3.43139 2.81947 2.81947 3.43139 2.43598 4.18404C2.18868 4.66938 2.09012 5.18608 2.0442 5.74818C1.99998 6.28936 1.99999 6.95373 2 7.75869V16.2413C1.99999 17.0463 1.99998 17.7106 2.0442 18.2518C2.09012 18.8139 2.18868 19.3306 2.43598 19.816C2.81947 20.5686 3.43139 21.1805 4.18404 21.564C4.66938 21.8113 5.18608 21.9099 5.74818 21.9558C6.28937 22 6.95372 22 7.75868 22H16.2413C17.0463 22 17.7106 22 18.2518 21.9558C18.8139 21.9099 19.3306 21.8113 19.816 21.564C20.5686 21.1805 21.1805 20.5686 21.564 19.816C21.8113 19.3306 21.9099 18.8139 21.9558 18.2518C22 17.7106 22 17.0463 22 16.2413L22 7.75862C22 6.95369 22 6.28935 21.9558 5.74818C21.9099 5.18608 21.8113 4.66938 21.564 4.18404C21.1805 3.43139 20.5686 2.81947 19.816 2.43598C19.3913 2.2196 18.9426 2.11709 18.4605 2.06407C18.3916 2.0565 18.3221 2.04994 18.2518 2.0442C17.772 2.00499 17.1954 2.00056 16.5099 2.00006L7.75868 2ZM7.8 4H11.1783C11.0931 4.26461 11.0527 4.53429 11.0306 4.80498C11 5.17953 11 5.63429 11 6.1614V8.83857C11 9.36568 11 9.82048 11.0306 10.195C11.0609 10.5663 11.1256 10.9357 11.2931 11.2927L8 14.5858L8 12C8 11.4477 7.55229 11 7 11C6.44772 11 6 11.4477 6 12V17C6 17.5523 6.44772 18 7 18H12C12.5523 18 13 17.5523 13 17C13 16.4477 12.5523 16 12 16H9.41421L12.7073 12.7069C13.0643 12.8744 13.4337 12.9391 13.805 12.9694C14.1795 13 14.6343 13 15.1614 13H17.8385C18.3657 13 18.8205 13 19.195 12.9694C19.4657 12.9473 19.7354 12.9069 20 12.8218V16.2C20 17.0566 19.9992 17.6389 19.9624 18.089C19.9266 18.5274 19.8617 18.7516 19.782 18.908C19.5903 19.2843 19.2843 19.5903 18.908 19.782C18.7516 19.8617 18.5274 19.9266 18.089 19.9624C17.6389 19.9992 17.0566 20 16.2 20H7.8C6.94342 20 6.36113 19.9992 5.91104 19.9624C5.47262 19.9266 5.24842 19.8617 5.09202 19.782C4.7157 19.5903 4.40974 19.2843 4.21799 18.908C4.1383 18.7516 4.07337 18.5274 4.03755 18.089C4.00078 17.6389 4 17.0566 4 16.2V7.8C4 6.94342 4.00078 6.36113 4.03755 5.91104C4.07337 5.47262 4.1383 5.24842 4.21799 5.09202C4.40974 4.7157 4.7157 4.40974 5.09202 4.21799C5.24842 4.1383 5.47262 4.07337 5.91104 4.03755C6.36113 4.00078 6.94342 4 7.8 4Z" fill="#801ED7"/>
</svg>
